X: 74
T: No_36_I_Will_See_a_Bear.krn
N: Derived from No_36_I_Will_See_a_Bear.krn
%%abc-version 2.0
%%abcx-abcm2ps-target-version 5.9.1 (29 Sep 2008)
%%abc-creator hum2abc beta
%%abcx-conversion-date 2019/03/15 08:35:44
%%humdrum-veritas 1115347860
%%humdrum-veritas-data 1962276359
%%linebreak <none>
%%barnumbers 0
L: 1/8
M: 2/4
K: E clef=bass
[K:clef=bass][M:2/4]z2E,B, ]|:  
B,2(3A,A,G, | 
F,4 | 
F, z (3F,E,C, ||  
[M:3/4]B,,4-B,,3/B,,/ | 
B,,3B,, B,, z ||  
[M:2/4]E,4- | 
E,3z/ E,/ ||  
[M:3/4]F,4F,2 | 
E,4-E,3/C,/ | 
C,4C,2 ||  
[M:2/4]E,4 ||  
[M:3/4]E,E,C,2B,, z | 
E,3F, E,E, | 
C,2C,4 ||  
[M:2/4](3B,,2 B,,2 B,,2 | 
B,,4 | 
B,, z E,B, :|]  
B,,2z2 |]  



